!!!!SEGMENT: pl-wtm--r-1400--001_stefani-jozef--adagio.krn
!!!cenid: 18xx:1871
!!!COM: Stefani, Józef
!!!COM-rismid: pe30024097
!!!CDT: 1800/04/16-1876/03/19
!!!CNT: Polish
!!!OTL: Adagio
!!!PDT:
!!!AGN: Secular
!!!SMS-siglum: PL-Wtm
!!!SMS-shelfmark: R 1400
!!!SMS-shelfwork: 001 W
!!!SMS-variant:
!!!SMS-altvar:
!!!NIFC-rismid: 1001117876
!!!URL-scan: http://repozytorium.nifc.pl/skany/pl-wtm-nut--r1400
!!!ONB-nifc: UWAGA: skan 0002. Następny utwór: No. 2. Maestoso
!!!key:
**kern	**kern	**dynam
*part2	*part1	*part1
*staff2	*staff1	*
*Ipiano	*Ipiano	*
*I"Piano	*I"Piano	*
*I'P-no	*I'P-no	*
*clefF4	*clefG2	*
*k[f#]	*k[f#]	*
*G:	*G:	*
*M4/4	*M4/4	*
*met(c)	*met(c)	*
*>[A,B,B1,B,B2,C]	*	*
=1	=1	=1
*>A	*	*
!	!LO:TX:rj:a:t=adagio	!
4r	4r	f
4E-X/ 4EE-X^>/	(4g/ 4c#X/ 4B-X'>/	.
4D/ 4DD^>/	4g/ 4d/ 4B-'>/	.
4C#X/ 4CC#X^>/	4g/ 4e/ 4B-'>/	.
=2	=2	=2
4D/ 4DD^>/	4g/ 4d/ 4Bn/)	.
.	(16qqa/LL	.
.	16qqg/JJ	.
!	!	!LO:DY:rj
4r	8f#/L	p
.	8g/J)	.
4.c\ 4.F#\ 4.D^\	(>4b^/	.
.	8a/)	.
8r;	8r;	.
=3||	=3||	=3||
*M6/8	*M6/8	*
!	!LO:TX:a:t=allegretto	!LO:DY:rj
(4G\	(4g/	f
8B\	8b/	.
4d\	4dd\	.
8e\	8ee\	.
!!LO:LB:g=original
=4	=4	=4
8d\L)	8dd\L)	.
8B\	8b\	.
8G\J	8g\J	.
4A\ 4D\	4a/ 4f#/	.
8G\	8b/ 8g/	.
.	.	p
=5	=5	=5
*	*^	*
4C/	8dd/L	(4a\ 4e\	.
.	8cc/	.	.
8C#X/	8b/J	8g\ 8e\)	.
4.D/	8a/L	8f#\L	.
.	8b/	8g\	.
.	8g/J	8e\J	.
*	*v	*v	*
=6	=6	=6
!	!LO:N:vis=8.	!
[4.D/ [4.DD/	8a/ 8f#/	.
.	(16dd\LL	.
.	16ff#\	.
!	!LO:TX:b:t=rall.	!
.	16aa\	.
.	16ff#\JJ	.
4D/] 4DD;/]	4ddd;\)	.
!	!LO:TX:b:t=a Tempo	!
8D\	8d/	f
=7	=7	=7
4G\	(4a/	.
8B-X\	8b-X/	.
4d\	4dd\	.
8e-X\	8ee-X\	.
!!LO:LB:g=original
=8	=8	=8
8d\L	8dd\L)	.
8B-X\	8b-X\	.
8G\J	8g\J	.
!LO:SIC:v:t=wykreślony dźwięk	!LO:SIC:v:t=wykreślone dźwięki	!
!LO:N:vis=4	!LO:N:vis=4	!
8A\ 8D\	8a/ 8f#/ 8d/	.
8Cn/	8a/ 8f#/ 8d/	.
8G\	8bn/ 8g/	p
=9	=9	=9
*^	*^	*
4.BB/	(>8BB\L	4.dd/ 4.g/ 4.d/	4.ryy	.
.	8D\	.	.	.
.	8G\J)	.	.	.
4.C/	8C\L	8dd/L	4e\	.
.	(>8E\	8cc/	.	.
.	8A\J)	8a/J	8e\ 8c\	.
*v	*v	*	*	*
*	*v	*v	*
=10	=10	=10
8B\ 8G\ 8D\	8g/ 8d/ 8B/	.
8r	4ddT\	.
8r	.	.
.	(16qqcc#X/LL	.
.	16qqdd/JJ	.
8c\ 8A\ 8D\	8f#/)	.
8r	4ddT\	.
8r	.	.
.	16qqcc#/LL	.
.	16qqdd/JJ	.
=11	=11	=11
2.r;	2.r;	.
=12	=12	=12
*clefG2	*	*
16a/LL	16aa\LL	.
16g/	16gg\	.
16f#/	16ff#\	.
16e/	16ee\	.
16d/	16dd\	.
16c/JJ	16cc\JJ	.
*clefF4	*	*
16B\LL	16b/LL	.
16A\	16a/	.
16G\	16g/	.
16F#\	16f#/	.
16E\	16e/	.
16D\JJ	16d/JJ	.
=13||	=13||	=13||
*M3/8	*M3/8	*
!	!LO:TX:a:t=allegro	!
16G\LL	16g/LL	mf
16A\J	16a/J	.
8B\	8b/	.
8c\J	8cc/J	.
=14	=14	=14
4d\	4dd\	.
8e\	8dd\	.
!!linebreak:original
=15	=15	=15
16d\LL 16D\	16cc\LL 16a\	.
16d\J 16D\	16cc\J 16a\	.
8d\ 8D\	8cc\ 8a\	.
8d\J 8D\	8cc\J 8a\	.
=16	=16	=16
.	(8qdd/ 8qb/	.
16d\ 16G\	16cc/ 16a/)	.
16r	16r	.
4d\ 4G^\	4b/ 4g'/	.
!!LO:LB:g=original
=17	=17	=17
16G\LL	16g/LL	.
16A\J	16a/J	.
8B\	8b/	.
8c\J	8cc/J	.
=18	=18	=18
4d\	4dd\	.
8e\	8ee\	.
=19	=19	=19
16d\LL 16D\	16cc/LL 16a/	.
16d\J 16D\	16cc/J 16a/	.
8d\ 8D\	8cc/ 8a/	.
8d\J 8D\	8cc/J 8a/	.
=20	=20	=20
.	8qdd/ 8qb/	.
16d\ 16G\	16cc/ 16a/	.
16r	16r	.
4d\ 4G^\	4b/ 4g/	.
=21!|:	=21!|:	=21!|:
*>B	*	*
8D'\L	4cc/ 4a/	f
(8A\	.	.
8d\J)	8cc/ 8a/	.
=22	=22	=22
.	(8qcc/ 8qa/	.
8G'\L	16.b/LL 16.g/)	.
.	32a#X/JJk 32f#'/	.
(8B\	8b/L 8g'/	.
8d\J)	8b/J 8g'/	.
=23	=23	=23
8D'\L	4a/ 4f#/	.
(8A\	.	.
8d\J)	8a/ 8f#/	.
!!LO:LB:g=original
=24	=24	=24
.	8qg/	.
4.D\	16.f#/LL	.
.	32e/JJk	.
.	8f#/L	.
.	8d/J	.
=25	=25	=25
16G\LL	16g/LL	.
16A\J	16a/J	.
8B\	8b/	.
8c\J	8cc/J	.
=26	=26	=26
4d\	4dd\	.
8c\ 8F#\ 8D\	(16a/LL	.
.	16b/JJ)	.
=27	=27	=27
8B\ 8G\	(4.g/	.
8D/L	.	.
8BB/J	.	.
=28	=28	=28
!LO:TX:t=1ma	!	!
*>B1	*	*
4GG/	4gg\	.
8r	8d/)	.
=29:|!	=29:|!	=29:|!
!LO:TX:t=2	!	!
*>B2	*	*
4GG/	4gg\ 4dd\ 4b\	.
16r	16r	ff
16G/ 16GG/	16g/ 16d/ 16B/	.
=30	=30	=30
*>C	*	*
4.G/ 4.GG;</	4.g/ 4.d/ 4.B;/	.
==	==	==
*-	*-	*-
!!!system-decoration: {(s1,s2)}
!!!RDF**kern: > = above
!!!RDF**kern: < = below
!!!EED: Leszek Kubiak
!!!EST: 2021-05-05
!!!AIN: 2 piano
!!!ENC: Berenika Jozajtis
!!!END: 2021-04-10
